src/lib/packages/icons/src/assets/line/certificate.svg

<svg width="24" height="24" viewBox="0 0 24 24" fill="none" xmlns="http://www.w3.org/2000/svg">
<path d="M11.25 17C11.25 17.414 10.914 17.75 10.5 17.75H5C2.582 17.75 1.25 16.418 1.25 14V6C1.25 3.582 2.582 2.25 5 2.25H17C19.418 2.25 20.75 3.582 20.75 6C20.75 6.414 20.414 6.75 20 6.75C19.586 6.75 19.25 6.414 19.25 6C19.25 4.423 18.577 3.75 17 3.75H5C3.423 3.75 2.75 4.423 2.75 6V14C2.75 15.577 3.423 16.25 5 16.25H10.5C10.914 16.25 11.25 16.586 11.25 17ZM12 7.25H6C5.586 7.25 5.25 7.586 5.25 8C5.25 8.414 5.586 8.75 6 8.75H12C12.414 8.75 12.75 8.414 12.75 8C12.75 7.586 12.414 7.25 12 7.25ZM9 12.75C9.414 12.75 9.75 12.414 9.75 12C9.75 11.586 9.414 11.25 9 11.25H6C5.586 11.25 5.25 11.586 5.25 12C5.25 12.414 5.586 12.75 6 12.75H9ZM22.1069 14.884L21.894 15.097L21.9031 15.376C21.9031 16.216 21.423 16.939 20.7271 17.307L21.7209 20.7939C21.7989 21.0689 21.714 21.365 21.501 21.557C21.361 21.683 21.182 21.75 20.999 21.75C20.905 21.75 20.811 21.732 20.72 21.696L18.873 20.9561C18.096 20.6451 17.2371 20.6461 16.4561 20.9561L14.6111 21.696C14.3431 21.802 14.0411 21.748 13.8301 21.557C13.6171 21.365 13.5321 21.0699 13.6101 20.7939L14.604 17.306C13.909 16.938 13.429 16.215 13.429 15.375V15.076L13.2241 14.8831C12.3701 14.0281 12.3691 12.636 13.2241 11.781L13.438 11.568L13.429 11.2889C13.429 10.0799 14.4131 9.09497 15.6221 9.09497H15.9209L16.1121 8.89099C16.9441 8.06099 18.3871 8.06099 19.2161 8.89099L19.428 9.10303L19.708 9.09497C20.917 9.09497 21.9009 10.0789 21.9009 11.2889V11.588L22.104 11.78C22.963 12.638 22.9619 14.029 22.1069 14.884ZM19.8589 19.735L19.281 17.707L19.217 17.775C18.804 18.189 18.253 18.417 17.667 18.417C17.081 18.417 16.53 18.189 16.115 17.775L16.051 17.7111L15.4741 19.736L15.9009 19.5649C17.0419 19.1109 18.2949 19.1109 19.4309 19.5649L19.8589 19.735ZM21.0471 12.843L20.835 12.631C20.556 12.35 20.4031 11.981 20.4031 11.589V11.29C20.4031 10.907 20.091 10.5959 19.71 10.5959H19.4109C19.0149 10.5959 18.6449 10.442 18.3679 10.163L18.158 9.953C17.894 9.689 17.437 9.69 17.176 9.953L16.9651 10.1639C16.6861 10.4419 16.3171 10.5959 15.9231 10.5959H15.624C15.242 10.5959 14.9309 10.907 14.9309 11.29V11.589C14.9309 11.982 14.778 12.352 14.499 12.63L14.2849 12.843C14.0149 13.113 14.0149 13.553 14.2859 13.823L14.499 14.036C14.777 14.313 14.9309 14.683 14.9309 15.077V15.376C14.9309 15.759 15.243 16.0699 15.624 16.0699H15.9231C16.3161 16.0699 16.6849 16.223 16.9629 16.5L17.177 16.714C17.437 16.975 17.896 16.976 18.157 16.714L18.3711 16.501C18.6461 16.224 19.0169 16.0699 19.4109 16.0699H19.71C20.092 16.0699 20.4031 15.759 20.4031 15.376V15.077C20.4031 14.684 20.555 14.315 20.833 14.037L21.0471 13.823C21.3171 13.553 21.3171 13.113 21.0471 12.843ZM20.083 13.333C20.083 14.666 18.999 15.75 17.667 15.75C16.334 15.75 15.25 14.666 15.25 13.333C15.25 12 16.334 10.916 17.667 10.916C18.999 10.917 20.083 12.001 20.083 13.333ZM18.583 13.333C18.583 12.827 18.172 12.416 17.667 12.416C17.161 12.416 16.75 12.827 16.75 13.333C16.75 13.838 17.161 14.25 17.667 14.25C18.172 14.25 18.583 13.839 18.583 13.333Z" fill="currentColor"/>
</svg>

<svg xmlns="http://www.w3.org/2000/svg" width="24" height="24" fill="none"><path fill="currentColor" d="M11.25 17a.75.75 0 0 1-.75.75H5c-2.418 0-3.75-1.332-3.75-3.75V6c0-2.418 1.332-3.75 3.75-3.75h12c2.418 0 3.75 1.332 3.75 3.75a.75.75 0 0 1-1.5 0c0-1.577-.673-2.25-2.25-2.25H5c-1.577 0-2.25.673-2.25 2.25v8c0 1.577.673 2.25 2.25 2.25h5.5a.75.75 0 0 1 .75.75ZM12 7.25H6a.75.75 0 0 0 0 1.5h6a.75.75 0 0 0 0-1.5Zm-3 5.5a.75.75 0 0 0 0-1.5H6a.75.75 0 0 0 0 1.5h3Zm13.107 2.134-.213.213.01.279c0 .84-.481 1.563-1.177 1.931l.994 3.487a.751.751 0 0 1-1.001.902l-1.847-.74a3.252 3.252 0 0 0-2.417 0l-1.845.74a.75.75 0 0 1-1-.902l.993-3.488a2.187 2.187 0 0 1-1.175-1.931v-.299l-.205-.193a2.197 2.197 0 0 1 0-3.102l.214-.213-.009-.28c0-1.208.984-2.193 2.193-2.193h.299l.191-.204c.832-.83 2.275-.83 3.104 0l.212.212.28-.008c1.209 0 2.193.984 2.193 2.194v.299l.203.192c.859.858.858 2.249.003 3.104Zm-2.248 4.851-.578-2.028-.064.068a2.175 2.175 0 0 1-1.55.642 2.183 2.183 0 0 1-1.552-.642l-.064-.064-.577 2.025.427-.171a4.745 4.745 0 0 1 3.53 0l.428.17Zm1.188-6.892-.212-.212a1.469 1.469 0 0 1-.432-1.042v-.299a.695.695 0 0 0-.693-.694h-.3c-.395 0-.765-.154-1.042-.433l-.21-.21a.709.709 0 0 0-.982 0l-.21.21a1.466 1.466 0 0 1-1.043.433h-.299a.694.694 0 0 0-.693.694v.299c0 .393-.153.763-.432 1.041l-.214.213c-.27.27-.27.71 0 .98l.214.213c.278.277.432.647.432 1.041v.299c0 .383.312.694.693.694h.3c.392 0 .76.153 1.039.43l.214.214a.71.71 0 0 0 .98 0l.214-.213a1.458 1.458 0 0 1 1.04-.431h.299a.694.694 0 0 0 .693-.694v-.299c0-.393.152-.762.43-1.04l.214-.214c.27-.27.27-.71 0-.98Zm-.964.49a2.42 2.42 0 0 1-2.416 2.417 2.42 2.42 0 0 1-2.417-2.417 2.42 2.42 0 0 1 2.417-2.417 2.42 2.42 0 0 1 2.416 2.417Zm-1.5 0a.917.917 0 1 0-1.835 0 .917.917 0 0 0 1.835 0Z"/></svg>
